inst/assets/svg/wi-moon-alt-waning-gibbous-3.svg

<?xml version="1.0" encoding="UTF-8"?>
<svg xmlns="http://www.w3.org/2000/svg" xmlns:xlink="http://www.w3.org/1999/xlink" width="30pt" height="30pt" viewBox="0 0 30 30" version="1.1">
<g id="surface366">
<path style=" stroke:none;fill-rule:nonzero;fill:rgb(0%,0%,0%);fill-opacity:1;" d="M 3.738281 14.441406 C 3.738281 12.921875 4.039063 11.460938 4.628906 10.070313 C 5.21875 8.679688 6.03125 7.488281 7.03125 6.480469 C 8.03125 5.46875 9.230469 4.671875 10.621094 4.078125 C 12.011719 3.488281 13.460938 3.191406 14.988281 3.191406 C 16.519531 3.191406 17.96875 3.488281 19.359375 4.078125 C 20.75 4.671875 21.949219 5.480469 22.960938 6.480469 C 23.96875 7.480469 24.769531 8.679688 25.359375 10.070313 C 25.949219 11.460938 26.25 12.910156 26.25 14.441406 C 26.25 15.96875 25.949219 17.421875 25.359375 18.808594 C 24.769531 20.199219 23.960938 21.398438 22.960938 22.410156 C 21.960938 23.421875 20.761719 24.21875 19.359375 24.808594 C 17.960938 25.398438 16.511719 25.699219 14.988281 25.699219 C 13.46875 25.699219 12.011719 25.398438 10.621094 24.808594 C 9.230469 24.21875 8.039063 23.410156 7.03125 22.410156 C 6.019531 21.410156 5.21875 20.210938 4.628906 18.808594 C 4.039063 17.410156 3.738281 15.96875 3.738281 14.441406 Z M 4.941406 14.441406 C 4.941406 15.808594 5.210938 17.109375 5.738281 18.351563 C 6.269531 19.589844 6.988281 20.660156 7.890625 21.558594 C 8.789063 22.460938 9.859375 23.171875 11.101563 23.710938 C 12.339844 24.25 13.640625 24.511719 15 24.511719 C 15.328125 24.511719 15.578125 24.511719 15.730469 24.5 C 16.511719 23.890625 17.171875 23.191406 17.691406 22.390625 C 18.210938 21.589844 18.609375 20.730469 18.871094 19.820313 C 19.128906 18.910156 19.308594 18.03125 19.410156 17.191406 C 19.511719 16.351563 19.558594 15.441406 19.558594 14.449219 C 19.558594 12.539063 19.238281 10.691406 18.589844 8.910156 C 17.941406 7.128906 16.941406 5.628906 15.570313 4.421875 C 15.441406 4.410156 15.25 4.410156 14.980469 4.410156 C 13.621094 4.410156 12.320313 4.679688 11.078125 5.210938 C 9.839844 5.738281 8.789063 6.441406 7.890625 7.339844 C 6.988281 8.238281 6.28125 9.308594 5.738281 10.550781 C 5.199219 11.789063 4.941406 13.089844 4.941406 14.441406 Z M 4.941406 14.441406 "/>
</g>
</svg>

<?xml version="1.0" encoding="utf-8"?>
<!-- Generator: Adobe Illustrator 22.0.1, SVG Export Plug-In . SVG Version: 6.00 Build 0)  -->
<svg version="1.1" id="Layer_1" xmlns="http://www.w3.org/2000/svg" xmlns:xlink="http://www.w3.org/1999/xlink" x="0px" y="0px"
	 viewBox="0 0 30 30" style="enable-background:new 0 0 30 30;" xml:space="preserve">
<path d="M3.74,14.44c0-1.52,0.3-2.98,0.89-4.37s1.4-2.58,2.4-3.59s2.2-1.81,3.59-2.4s2.84-0.89,4.37-0.89s2.98,0.3,4.37,0.89
	s2.59,1.4,3.6,2.4s1.81,2.2,2.4,3.59s0.89,2.84,0.89,4.37s-0.3,2.98-0.89,4.37s-1.4,2.59-2.4,3.6s-2.2,1.81-3.6,2.4
	s-2.85,0.89-4.37,0.89s-2.98-0.3-4.37-0.89s-2.58-1.4-3.59-2.4s-1.81-2.2-2.4-3.6S3.74,15.97,3.74,14.44z M4.94,14.44
	c0,1.37,0.27,2.67,0.8,3.91s1.25,2.31,2.15,3.21s1.97,1.61,3.21,2.15s2.54,0.8,3.9,0.8c0.33,0,0.58,0,0.73-0.01
	c0.78-0.61,1.44-1.31,1.96-2.11s0.92-1.66,1.18-2.57s0.44-1.79,0.54-2.63s0.15-1.75,0.15-2.74c0-1.91-0.32-3.76-0.97-5.54
	s-1.65-3.28-3.02-4.49c-0.13-0.01-0.32-0.01-0.59-0.01c-1.36,0-2.66,0.27-3.9,0.8S8.79,6.44,7.89,7.34s-1.61,1.97-2.15,3.21
	S4.94,13.09,4.94,14.44z"/>
</svg>
